assets/logo-prycto-grey.svg

<svg height="49" viewBox="0 0 167 49" width="167" xmlns="http://www.w3.org/2000/svg"><g fill="#282138" fill-rule="evenodd"><path d="m15.7819704 24.1384013h2.9942395c1.4606619 0 2.7119859-.3691223 3.5258169-1.039185.7009295-.5760188 1.0560986-1.3471787 1.0560986-2.2852665 0-1.9349529-1.1995775-4.1943573-4.5819155-4.1943573h-2.9942395zm-11.65236617-7.5188088v24.1152037c0 2.7648903 1.77114084 3.7923198 3.42938028 3.8322884 1.36657746.0258621 3.72574649-.7123824 3.86922539-3.7076802l.0094084-.2045455.0376338-.1504702c.0305775-.2210031.0682113-.9898119.0682113-2.1089342v-2.0642633h9.6765915c5.656831 0 13.5458169-5.9858934 13.5458169-15.7335423 0-9.1904389-8.0277605-15.84404388-13.4399718-15.84404388h-5.5439296v7.73746078h2.9942395c3.3517605 0 5.386338 1.4106583 6.5012394 2.5932602 1.4253803 1.5117555 2.2109859 3.5478057 2.2109859 5.7296238 0 4.3871474-3.5822676 7.4529781-8.7122253 7.4529781h-7.1245493v-11.6473354zm3.53052112 32.0760188c-.06585915 0-.13171831-.0023511-.19992958-.0023511-3.59167605-.0846395-7.45854929-2.612069-7.45854929-7.958464v-28.2437304h11.65001412v-11.86363633h9.6742394c3.9609577 0 8.3758732 2.18416928 11.8123099 5.84482758 3.7116338 3.95689655 5.7579718 8.97413795 5.7579718 14.12539185 0 5.492163-2.0769155 10.6175549-5.8473521 14.4310345-3.3588169 3.4020376-7.7807888 5.4310345-11.8287747 5.4310345h-5.5980281c-.0235212.3691222-.0517465.6018808-.0799719.7570533-.145831 2.2852664-1.0772676 4.2225705-2.7002253 5.6026645-1.4253803 1.2155173-3.25767608 1.8761756-5.18170425 1.8761756z"/><path d="m54.170331 20.2652038h4.1397183c.6562394 0 1.2019296-.2539185 1.6417746-.7641066.4421972-.507837.6609437-1.1967085.6609437-2.0689655 0-.4443574-.0682113-.8393417-.2069859-1.1943574-.1387747-.3526646-.3175352-.653605-.543338-.8981191-.2234507-.2468652-.4868874-.4326019-.7903099-.554859-.2987183-.122257-.6068451-.1857366-.9173239-.1857366h-3.9844789zm-3.5705071 8.8424765v-17.4874609h7.7878451c.8444085 0 1.6253099.169279 2.3427042.5054859.7150423.3362069 1.3312958.7782132 1.8487606 1.3283699.5174648.5501568.9243803 1.1755486 1.2160423 1.8714734.294014.6982759.439845 1.4012539.439845 2.1065831 0 .7382445-.1364225 1.4576802-.4116197 2.1559561-.2775493.6982758-.6656479 1.3166144-1.1666479 1.8597178-.4986479.5407524-1.1031408.9757054-1.8111267 1.304859-.7056338.3291536-1.481831.4937304-2.3285916.4937304h-4.3467042v5.8612853z"/><path d="m73.9116127 20.2652038h4.4760704c.3269437 0 .6350704-.0728841.9196761-.2210032.2846056-.1481191.5292253-.3503135.7362112-.6042319.2069859-.2539185.3716338-.5525079.4915916-.8981192.1223098-.3456113.1811126-.7147335.1811126-1.1097178 0-.4090909-.0682112-.7876176-.2069859-1.1332289-.1364225-.3432602-.3222394-.6442006-.5550986-.8981191-.2328591-.2539185-.501-.4514107-.8020704-.5901254-.3034225-.1410658-.6091972-.2115987-.919676-.2115987h-4.320831zm-3.5705071 8.8424765v-17.4874609h8.1241972c.8444085 0 1.6253099.169279 2.3427042.5054859.7150423.3362069 1.3336479.7782132 1.8511127 1.3283699.5151127.5501568.9196761 1.1755486 1.2136902 1.8714734.294014.6982759.439845 1.4012539.439845 2.1065831 0 1.1332288-.2963662 2.1630094-.8914507 3.0916928-.5950845.9286833-1.4042112 1.598746-2.4203239 2.0078369l4.1914648 6.5760189h-4.0103521l-3.7516198-5.8612853h-3.5187605v5.8612853z"/><path d="m92.6459549 11.6195141 4.5278169 8.4239812 4.6054362-8.4239812h3.855113l-6.6752956 11.3793104v6.1081504h-3.5446339v-6.1575235l-6.6494225-11.3299373z"/><path d="m108.919987 20.2409875c0-1.0673982.202282-2.1230408.609198-3.1645768.404563-1.0438872.997295-1.9749217 1.773492-2.7978057.773846-.8205329 1.721747-1.4835423 2.846057-1.9937304 1.119605-.5101881 2.394451-.7641066 3.829239-.7641066 1.688817 0 3.149479.3526646 4.384338 1.0603449 1.232507.7053291 2.152183 1.6246081 2.756676 2.7578369l-2.742563 1.7985894c-.242268-.4937304-.536282-.9075235-.87969-1.2437304-.345761-.3362069-.717395-.604232-1.114902-.8017242-.395155-.195141-.811478-.338558-1.239563-.4302507-.432789-.0916928-.856169-.1363637-1.267789-.1363637-.898507 0-1.679408.1739812-2.342704.5172414-.665648.3456113-1.216042.7923197-1.658239 1.3424765-.437493.5501567-.771493 1.1755486-.992592 1.8714733-.225803.700627-.338704 1.3942007-.338704 2.0830721 0 .7711599.131718 1.5141066.388098 2.2288402.258733.7147335.625662 1.3424765 1.100789 1.8855799.472775.5407524 1.041986.9757053 1.705282 1.3048589.665648.3268025 1.394803.4913793 2.187465.4913793.416324 0 .844408-.049373 1.296014-.1481191.446901-.0987461.874986-.2539185 1.279549-.4678683.404563-.2115988.780901-.4890282 1.12431-.8252351.34576-.3362069.620958-.7429467.830296-1.2178684l2.923676 1.5987461c-.294014.6583072-.71269 1.2366771-1.256028 1.7374608-.543338.5031348-1.154888.9239812-1.837 1.2695925-.679761.3456113-1.411268.6065831-2.185113.7876176-.776197.1810345-1.53593.2703761-2.279197.2703761-1.310127 0-2.507352-.2609717-3.596381-.7876175-1.086676-.5242947-2.020464-1.2108151-2.80607-2.0548589-.785606-.846395-1.397155-1.8079938-1.839352-2.8847963-.437493-1.0744514-.658592-2.1700627-.658592-3.2868338"/><path d="m144.964232 14.5997649h-5.873225v14.5086207h-3.544634v-14.5086207h-5.873225v-2.9811912h15.291084z"/><path d="m152.518983 20.3639498c0 .7547022.12231 1.4858935.362225 2.1935737.242268.7053292.590381 1.3283699 1.049043 1.8714734.45631.5407523 1.016112.9757053 1.679408 1.3048589.665648.3291536 1.420676.4937304 2.265085.4937304.863225 0 1.627662-.169279 2.290957-.5054859.663296-.3362069 1.223099-.7852664 1.681761-1.3424765.45631-.5595611.80207-1.1873041 1.03493-1.8855799.232859-.6982759.350464-1.4059561.350464-2.1300941 0-.7547022-.127014-1.4858934-.376338-2.1935736-.249324-.7053292-.602141-1.3283699-1.060803-1.8714734-.456309-.5407523-1.018464-.9733542-1.68176-1.2931034-.665648-.3197492-1.411268-.4796239-2.239211-.4796239-.863226 0-1.630014.169279-2.302719.5054859-.670352.3362069-1.234859.7782132-1.68176 1.3283699-.446902.5525079-.787958 1.1755486-1.023169 1.8738245-.230507.6982759-.348113 1.4083072-.348113 2.130094m5.33224 8.8659875c-1.347761 0-2.566155-.2492163-3.66224-.75-1.096084-.5007837-2.034577-1.1661442-2.820183-1.9937304-.785606-.8299373-1.394803-1.7774295-1.825239-2.8448276-.430437-1.0697492-.646831-2.1606583-.646831-3.2774295 0-1.1661442.230507-2.2829153.686816-3.3503134.45631-1.0673982 1.086677-2.0101881 1.888747-2.8330721.80207-.820533 1.754676-1.4717869 2.860169-1.9561129 1.100789-.484326 2.300366-.726489 3.59638-.726489 1.326592 0 2.53793.2562696 3.634014.7758621 1.096085.5148902 2.032226 1.1920062 2.806071 2.0313479.776197.8369906 1.38069 1.789185 1.813479 2.8565831.430436 1.0673981.646831 2.1512539.646831 3.2515674 0 1.1661442-.225803 2.2782132-.672705 3.3362069-.451605 1.0603448-1.070211 1.9960815-1.862873 2.8095611-.795014.8111285-1.742915 1.4623825-2.846056 1.9443574-1.105493.484326-2.305071.726489-3.59638.726489"/></g></svg>

<?xml version="1.0" encoding="UTF-8"?>
<svg width="167px" height="49px" viewBox="0 0 167 49" version="1.1" xmlns="http://www.w3.org/2000/svg" xmlns:xlink="http://www.w3.org/1999/xlink">
    <!-- Generator: Sketch 52.2 (67145) - http://www.bohemiancoding.com/sketch -->
    <title>Logo</title>
    <desc>Created with Sketch.</desc>
    <g id="Designs" stroke="none" stroke-width="1" fill="none" fill-rule="evenodd">
        <g id="Home" transform="translate(-397.000000, -4285.000000)" fill="#282138">
            <g id="JOIN-THE-WBTC-COMMUNITY" transform="translate(0.000000, 3815.000000)">
                <g id="SECTION---JOIN-THE-WBTC-COMMUNITY" transform="translate(130.000000, 85.000000)">
                    <g id="Logo-Set-Protocol-Copy" transform="translate(240.000000, 356.000000)">
                        <g id="Logo" transform="translate(27.000000, 29.000000)">
                            <path d="M15.7819704,24.1384013 L18.7762099,24.1384013 C20.2368718,24.1384013 21.4881958,23.769279 22.3020268,23.0992163 C23.0029563,22.5231975 23.3581254,21.7520376 23.3581254,20.8139498 C23.3581254,18.8789969 22.1585479,16.6195925 18.7762099,16.6195925 L15.7819704,16.6195925 L15.7819704,24.1384013 Z M4.12960423,16.6195925 L4.12960423,40.7347962 C4.12960423,43.4996865 5.90074507,44.527116 7.55898451,44.5670846 C8.92556197,44.5929467 11.284731,43.8547022 11.4282099,40.8594044 L11.4376183,40.6548589 L11.4752521,40.5043887 C11.5058296,40.2833856 11.5434634,39.5145768 11.5434634,38.3954545 L11.5434634,36.3311912 L21.2200549,36.3311912 C26.8768859,36.3311912 34.7658718,30.3452978 34.7658718,20.5976489 C34.7658718,11.40721 26.7381113,4.75360502 21.3259,4.75360502 L15.7819704,4.75360502 L15.7819704,12.4910658 L18.7762099,12.4910658 C22.1279704,12.4910658 24.1625479,13.9017241 25.2774493,15.084326 C26.7028296,16.5960815 27.4884352,18.6321317 27.4884352,20.8139498 C27.4884352,25.2010972 23.9061676,28.2669279 18.7762099,28.2669279 L11.6516606,28.2669279 L11.6516606,16.6195925 L4.12960423,16.6195925 Z M7.66012535,48.6956113 C7.5942662,48.6956113 7.52840704,48.6932602 7.46019577,48.6932602 C3.86851972,48.6086207 0.00164647887,46.0811912 0.00164647887,40.7347962 L0.00164647887,12.4910658 L11.6516606,12.4910658 L11.6516606,0.627429467 L21.3259,0.627429467 C25.2868577,0.627429467 29.7017732,2.81159875 33.1382099,6.47225705 C36.8498437,10.4291536 38.8961817,15.446395 38.8961817,20.5976489 C38.8961817,26.0898119 36.8192662,31.2152038 33.0488296,35.0286834 C29.6900127,38.430721 25.2680408,40.4597179 21.2200549,40.4597179 L15.6220268,40.4597179 C15.5985056,40.8288401 15.5702803,41.0615987 15.5420549,41.2167712 C15.3962239,43.5020376 14.4647873,45.4393417 12.8418296,46.8194357 C11.4164493,48.034953 9.58415352,48.6956113 7.66012535,48.6956113 Z" id="Fill-1"></path>
                            <path d="M54.170331,20.2652038 L58.3100493,20.2652038 C58.9662887,20.2652038 59.5119789,20.0112853 59.9518239,19.5010972 C60.3940211,18.9932602 60.6127676,18.3043887 60.6127676,17.4321317 C60.6127676,16.9877743 60.5445563,16.59279 60.4057817,16.2377743 C60.267007,15.8851097 60.0882465,15.5841693 59.8624437,15.3396552 C59.638993,15.09279 59.3755563,14.9070533 59.0721338,14.7847962 C58.7734155,14.6625392 58.4652887,14.5990596 58.1548099,14.5990596 L54.170331,14.5990596 L54.170331,20.2652038 Z M50.5998239,29.1076803 L50.5998239,11.6202194 L58.387669,11.6202194 C59.2320775,11.6202194 60.0129789,11.7894984 60.7303732,12.1257053 C61.4454155,12.4619122 62.061669,12.9039185 62.5791338,13.4540752 C63.0965986,14.004232 63.5035141,14.6296238 63.7951761,15.3255486 C64.0891901,16.0238245 64.2350211,16.7268025 64.2350211,17.4321317 C64.2350211,18.1703762 64.0985986,18.8898119 63.8234014,19.5880878 C63.5458521,20.2863636 63.1577535,20.9047022 62.6567535,21.4478056 C62.1581056,21.988558 61.5536127,22.423511 60.8456268,22.7526646 C60.139993,23.0818182 59.3637958,23.246395 58.5170352,23.246395 L54.170331,23.246395 L54.170331,29.1076803 L50.5998239,29.1076803 Z" id="Fill-4"></path>
                            <path d="M73.9116127,20.2652038 L78.3876831,20.2652038 C78.7146268,20.2652038 79.0227535,20.1923197 79.3073592,20.0442006 C79.5919648,19.8960815 79.8365845,19.6938871 80.0435704,19.4399687 C80.2505563,19.1860502 80.4152042,18.8874608 80.535162,18.5418495 C80.6574718,18.1962382 80.7162746,17.827116 80.7162746,17.4321317 C80.7162746,17.0230408 80.6480634,16.6445141 80.5092887,16.2989028 C80.3728662,15.9556426 80.1870493,15.6547022 79.9541901,15.4007837 C79.721331,15.1468652 79.4531901,14.949373 79.1521197,14.8106583 C78.8486972,14.6695925 78.5429225,14.5990596 78.2324437,14.5990596 L73.9116127,14.5990596 L73.9116127,20.2652038 Z M70.3411056,29.1076803 L70.3411056,11.6202194 L78.4653028,11.6202194 C79.3097113,11.6202194 80.0906127,11.7894984 80.808007,12.1257053 C81.5230493,12.4619122 82.1416549,12.9039185 82.6591197,13.4540752 C83.1742324,14.004232 83.5787958,14.6296238 83.8728099,15.3255486 C84.1668239,16.0238245 84.3126549,16.7268025 84.3126549,17.4321317 C84.3126549,18.5653605 84.0162887,19.5951411 83.4212042,20.5238245 C82.8261197,21.4525078 82.016993,22.1225705 81.0008803,22.5316614 L85.1923451,29.1076803 L81.181993,29.1076803 L77.4303732,23.246395 L73.9116127,23.246395 L73.9116127,29.1076803 L70.3411056,29.1076803 Z" id="Fill-6"></path>
                            <polygon id="Fill-8" points="92.6459549 11.6195141 97.1737718 20.0434953 101.779208 11.6195141 105.634321 11.6195141 98.9590254 22.9988245 98.9590254 29.1069749 95.4143915 29.1069749 95.4143915 22.9494514 88.764969 11.6195141"></polygon>
                            <path d="M108.919987,20.2409875 C108.919987,19.1735893 109.122269,18.1179467 109.529185,17.0764107 C109.933748,16.0325235 110.52648,15.101489 111.302677,14.278605 C112.076523,13.4580721 113.024424,12.7950627 114.148734,12.2848746 C115.268339,11.7746865 116.543185,11.520768 117.977973,11.520768 C119.66679,11.520768 121.127452,11.8734326 122.362311,12.5811129 C123.594818,13.286442 124.514494,14.205721 125.118987,15.3389498 L122.376424,17.1375392 C122.134156,16.6438088 121.840142,16.2300157 121.496734,15.8938088 C121.150973,15.5576019 120.779339,15.2895768 120.381832,15.0920846 C119.986677,14.8969436 119.570354,14.7535266 119.142269,14.6618339 C118.70948,14.5701411 118.2861,14.5254702 117.87448,14.5254702 C116.975973,14.5254702 116.195072,14.6994514 115.531776,15.0427116 C114.866128,15.3883229 114.315734,15.8350313 113.873537,16.3851881 C113.436044,16.9353448 113.102044,17.5607367 112.880945,18.2566614 C112.655142,18.9572884 112.542241,19.6508621 112.542241,20.3397335 C112.542241,21.1108934 112.673959,21.8538401 112.930339,22.5685737 C113.189072,23.2833072 113.556001,23.9110502 114.031128,24.4541536 C114.503903,24.994906 115.073114,25.4298589 115.73641,25.7590125 C116.402058,26.085815 117.131213,26.2503918 117.923875,26.2503918 C118.340199,26.2503918 118.768283,26.2010188 119.219889,26.1022727 C119.66679,26.0035266 120.094875,25.8483542 120.499438,25.6344044 C120.904001,25.4228056 121.280339,25.1453762 121.623748,24.8091693 C121.969508,24.4729624 122.244706,24.0662226 122.454044,23.5913009 L125.37772,25.190047 C125.083706,25.8483542 124.66503,26.4267241 124.121692,26.9275078 C123.578354,27.4306426 122.966804,27.851489 122.284692,28.1971003 C121.604931,28.5427116 120.873424,28.8036834 120.099579,28.9847179 C119.323382,29.1657524 118.563649,29.255094 117.820382,29.255094 C116.510255,29.255094 115.31303,28.9941223 114.224001,28.4674765 C113.137325,27.9431818 112.203537,27.2566614 111.417931,26.4126176 C110.632325,25.5662226 110.020776,24.6046238 109.578579,23.5278213 C109.141086,22.4533699 108.919987,21.3577586 108.919987,20.2409875" id="Fill-10"></path>
                            <polygon id="Fill-12" points="144.964232 14.5997649 139.091007 14.5997649 139.091007 29.1083856 135.546373 29.1083856 135.546373 14.5997649 129.673148 14.5997649 129.673148 11.6185737 144.964232 11.6185737"></polygon>
                            <path d="M152.518983,20.3639498 C152.518983,21.118652 152.641293,21.8498433 152.881208,22.5575235 C153.123476,23.2628527 153.471589,23.8858934 153.930251,24.4289969 C154.386561,24.9697492 154.946363,25.4047022 155.609659,25.7338558 C156.275307,26.0630094 157.030335,26.2275862 157.874744,26.2275862 C158.737969,26.2275862 159.502406,26.0583072 160.165701,25.7221003 C160.828997,25.3858934 161.3888,24.9368339 161.847462,24.3796238 C162.303772,23.8200627 162.649532,23.1923197 162.882392,22.4940439 C163.115251,21.795768 163.232856,21.0880878 163.232856,20.3639498 C163.232856,19.6092476 163.105842,18.8780564 162.856518,18.1703762 C162.607194,17.465047 162.254377,16.8420063 161.795715,16.2989028 C161.339406,15.7581505 160.777251,15.3255486 160.113955,15.0057994 C159.448307,14.6860502 158.702687,14.5261755 157.874744,14.5261755 C157.011518,14.5261755 156.24473,14.6954545 155.572025,15.0316614 C154.901673,15.3678683 154.337166,15.8098746 153.890265,16.3600313 C153.443363,16.9125392 153.102307,17.5355799 152.867096,18.2338558 C152.636589,18.9321317 152.518983,19.642163 152.518983,20.3639498 M157.851223,29.2299373 C156.503462,29.2299373 155.285068,28.980721 154.188983,28.4799373 C153.092899,27.9791536 152.154406,27.3137931 151.3688,26.4862069 C150.583194,25.6562696 149.973997,24.7087774 149.543561,23.6413793 C149.113124,22.5716301 148.89673,21.480721 148.89673,20.3639498 C148.89673,19.1978056 149.127237,18.0810345 149.583546,17.0136364 C150.039856,15.9462382 150.670223,15.0034483 151.472293,14.1805643 C152.274363,13.3600313 153.226969,12.7087774 154.332462,12.2244514 C155.433251,11.7401254 156.632828,11.4979624 157.928842,11.4979624 C159.255434,11.4979624 160.466772,11.754232 161.562856,12.2738245 C162.658941,12.7887147 163.595082,13.4658307 164.368927,14.3051724 C165.145124,15.142163 165.749617,16.0943574 166.182406,17.1617555 C166.612842,18.2291536 166.829237,19.3130094 166.829237,20.4133229 C166.829237,21.5794671 166.603434,22.6915361 166.156532,23.7495298 C165.704927,24.8098746 165.086321,25.7456113 164.293659,26.5590909 C163.498645,27.3702194 162.550744,28.0214734 161.447603,28.5034483 C160.34211,28.9877743 159.142532,29.2299373 157.851223,29.2299373" id="Fill-14"></path>
                        </g>
                    </g>
                </g>
            </g>
        </g>
    </g>
</svg>
